X: 11445
T: Eavesdropper, The
R: jig
M: 6/8
K: Gmajor
D2 B BAG|Bcd {e} dBG|cde dBG|BAG AGE|
D2 B BAG|Bcd {e} dBG|cde dBG|BGF G2 z:|
gfg afd|efg dBG|cde dBG|BAG Adf|
gfg afd|efg dBG|cde dBG|AGF G2 d|
gfg afd|efg dBG|cde dBG|BAG Adf|
gab bfd|efg dBG|cde dBA|BGF G2 z||

